src/lib/packages/icons/src/assets/filled/coupon-percent.svg

<svg width="24" height="24" viewBox="0 0 24 24" fill="none" xmlns="http://www.w3.org/2000/svg">
<path d="M21 10V7C21 5 20 4 18 4H6C4 4 3 5 3 7V10C4.1 10 5 10.9 5 12C5 13.1 4.1 14 3 14V17C3 19 4 20 6 20H18C20 20 21 19 21 17V14C19.9 14 19 13.1 19 12C19 10.9 19.9 10 21 10ZM9.51001 8.5H9.52002C10.073 8.5 10.52 8.948 10.52 9.5C10.52 10.052 10.073 10.5 9.52002 10.5C8.96802 10.5 8.51501 10.052 8.51501 9.5C8.51501 8.948 8.95801 8.5 9.51001 8.5ZM9.5 15.25C9.308 15.25 9.11597 15.177 8.96997 15.03C8.67697 14.737 8.67697 14.262 8.96997 13.969L13.97 8.96899C14.263 8.67599 14.738 8.67599 15.031 8.96899C15.324 9.26199 15.324 9.737 15.031 10.03L10.031 15.03C9.88401 15.177 9.692 15.25 9.5 15.25ZM14.52 15.5C13.968 15.5 13.515 15.052 13.515 14.5C13.515 13.948 13.958 13.5 14.51 13.5H14.52C15.073 13.5 15.52 13.948 15.52 14.5C15.52 15.052 15.072 15.5 14.52 15.5Z" fill="currentColor"/>
</svg>

<svg xmlns="http://www.w3.org/2000/svg" width="24" height="24" fill="none"><path fill="currentColor" d="M21 10V7c0-2-1-3-3-3H6C4 4 3 5 3 7v3c1.1 0 2 .9 2 2s-.9 2-2 2v3c0 2 1 3 3 3h12c2 0 3-1 3-3v-3c-1.1 0-2-.9-2-2s.9-2 2-2ZM9.51 8.5h.01a1 1 0 1 1 0 2 1.005 1.005 0 0 1-1.005-1c0-.552.443-1 .995-1Zm-.01 6.75a.75.75 0 0 1-.53-1.281l5-5a.75.75 0 1 1 1.061 1.061l-5 5a.748.748 0 0 1-.531.22Zm5.02.25a1.005 1.005 0 0 1-1.005-1c0-.552.443-1 .995-1h.01a1 1 0 1 1 0 2Z"/></svg>
